X:82
T:Rain on Snow
C:Dave Wiesler 2003 
M:6/8
K:Am
"Am"EAB c2 F-|"Fdim/A"FAB c2 ^F-|"Am6"FABc2 A |"F/A"e3 d3 | 
"Am"EAB c2 F-|"Fdim/A"FAB c2 ^F-|"Am6"FABc2 A |"A7"g3 f3 ||
"Dm"Ade f2 _B-|"Bbdim/D"Bde f2 B-|"Dm6"Bde f2 d |"E7"a3 ^g3|
"Am"EAB c2 F-|"Fdim/A"FAB c2 ^F-|"Am6"FABc2 A |"Fdim/A"e3 d3 ||
|:"E"efe dcd | e2 E-E2 E|"E"efe dcd|e2 E-E2 E|
"E"efe dcd | efe dcd|"E" efe dcB | AGF E3:|
